X: 2
T: Ronas Voe
C: Ronnie Cooper
O: Shetland Islands
F: http://www.thesession.org/tunes/display/7336 2009-6-3
M: 3/4
L: 1/8
R: Waltz
K: G
|: B,2 C2 | D6 | B4 F2 | A2 G4 | D4 G2 | E4 G2 | A4 G2 | B6- | B2 B,2 C2 |
D6 | B2 A2 F2 | A2 G2 F2 | G4 B2 | A6 | A4 E2 | A6- | A2 B,2 C2 |
D2 B,2 D2 | B4 F2 | A2 G4 | D4 G2 | E4 G2 | A4 G2 | B6- | B4 D2 |
E6 | F6 | G6 | c6 | B4 D2 | B4 A2 | G6- |1 G2 :|2 G4 ||
K: D
|: F>G | A3 F A2 | f2 c2 d2 | (3efe d3 B | A4 d2 | B4 d2 | e4 f2 | A6 | (3ABA F3 G |
A4 F2 | (3fgf- f2 c>d | e2 (3ded c2 | d2 A2 d2 | e4 B2 | e4 d2 | c6 | (3efe E2 (3EFG |
A6 | f3 c d2 | e2 d3 c | A2 d2 c2 | B4 d2 | e4 d2 | g6- | g4 B2 |
B2 ^A2 B2 | c6 | d3 c d2 | e2 f2 g2 | f a3 f2 | (3efe a2 c2 | d3 A F2 |1 D4 :|2 D2 |]
